X: 1
M: none
L: 1/2
K: D
V: 1
D2 | E F | G2 || E2 | G A | B G    | F2  || E2  | A B | G2 || A2 | B B | c A   | D2 |]
V: 2 clef=bass octave=-1
F2 | C D | E2 || A,2 | E D | G, G, | B,2 || =C2 | D D | E2 || F2 | G E | A, A, | D2 |]
